brandFactory_export/1.Light/Dolar_Dinero_Moneda_1Light.svg

<?xml version="1.0" encoding="UTF-8"?>
<svg width="24px" height="24px" viewBox="0 0 24 24" version="1.1" xmlns="http://www.w3.org/2000/svg" xmlns:xlink="http://www.w3.org/1999/xlink">
    <title>1.Light/Dolar_Dinero_Moneda_1Light</title>
    <g id="Symbols" stroke="none" stroke-width="1" fill="none" fill-rule="evenodd">
        <g id="1.Light/Dolar_Dinero_Moneda_1Light" fill="#5CB615" fill-rule="nonzero">
            <path d="M15.8453782,18.6218487 C15.0890756,19.3915966 14.1310924,19.794958 13.0991597,19.9428571 L13.0991597,12.5983193 C13.8487395,12.702521 14.5478992,12.8436975 15.1630252,13.1327731 C16.1210084,13.5764706 16.7428571,14.3697479 16.9243697,15.3613445 C17.1327731,16.5109244 16.7294118,17.7277311 15.8453782,18.6218487 M8.72268908,9.55294118 C7.97647059,8.77310924 7.90588235,7.86218487 7.97647059,7.23697479 C8.10420168,6.08739496 8.82352941,4.92773109 9.80840336,4.2789916 C10.3193277,3.94621849 10.8941176,3.7210084 11.4957983,3.61344538 L11.4957983,10.7596639 C10.4201681,10.5848739 9.43865546,10.302521 8.72268908,9.55294118 M15.8420168,11.6739496 C14.9680672,11.2672269 14.0268908,11.102521 13.0991597,10.9781513 L13.0991597,3.56638655 C14.389916,3.70420168 15.6369748,4.23193277 16.5310924,4.96470588 C16.8739496,5.24369748 17.3781513,5.19663866 17.6571429,4.84705882 C17.9394958,4.50084034 17.8857143,3.99663866 17.5428571,3.71428571 C16.3731092,2.75630252 14.7663866,2.08739496 13.102521,1.94957983 L13.102521,0.806722689 C13.102521,0.36302521 12.7428571,0.00336134454 12.2991597,0.00336134454 C11.8554622,0.00336134454 11.4991597,0.36302521 11.4991597,0.810084034 L11.4991597,2 C10.5848739,2.11764706 9.70756303,2.43697479 8.93109244,2.93781513 C7.54285714,3.8487395 6.56470588,5.43193277 6.38319328,7.05882353 C6.22521008,8.4302521 6.6487395,9.71428571 7.56638655,10.6756303 C8.67563025,11.8319328 10.1176471,12.1882353 11.4957983,12.389916 L11.4957983,19.989916 C9.97983193,19.8252101 8.52773109,19.2840336 7.27731092,18.410084 C6.91428571,18.1579832 6.41680672,18.2453782 6.16134454,18.6084034 L6.16134454,18.6117647 C5.9092437,18.9781513 5.99663866,19.4789916 6.35966387,19.7344538 C7.8789916,20.7932773 9.65042017,21.4386555 11.4957983,21.6033613 L11.4957983,22.7596639 C11.4756303,23.2033613 11.8184874,23.5764706 12.2621849,23.5966387 C12.7058824,23.6168067 13.0789916,23.2739496 13.0991597,22.8302521 L13.0991597,21.5798319 C14.5344538,21.4117647 15.8957983,20.8605042 16.9848739,19.7546218 C18.2319328,18.487395 18.8,16.7361345 18.5008403,15.0789916 C18.2319328,13.5529412 17.2840336,12.3428571 15.8420168,11.6739496" id="Dolar_Dinero_Moneda_1Light"></path>
        </g>
    </g>
</svg>

<svg width="24" height="24" viewBox="0 0 24 24" xmlns="http://www.w3.org/2000/svg"><path d="M15.845 18.622c-.756.77-1.714 1.173-2.746 1.32v-7.344c.75.105 1.449.246 2.064.535.958.443 1.58 1.237 1.761 2.228.209 1.15-.195 2.367-1.079 3.26M8.723 9.554c-.747-.78-.817-1.69-.747-2.316.128-1.15.848-2.31 1.832-2.958a4.563 4.563 0 011.688-.666v7.147c-1.076-.175-2.057-.457-2.773-1.207m7.119 2.12c-.874-.406-1.815-.57-2.743-.695V3.566c1.29.138 2.538.666 3.432 1.399a.795.795 0 001.126-.118.805.805 0 00-.114-1.133c-1.17-.958-2.777-1.627-4.44-1.764V.807A.801.801 0 1011.5.81V2a6.195 6.195 0 00-2.569.938c-1.388.91-2.366 2.494-2.548 4.12-.158 1.372.266 2.656 1.183 3.618 1.11 1.156 2.552 1.512 3.93 1.714v7.6a9.073 9.073 0 01-4.219-1.58.803.803 0 00-1.116.198v.004a.81.81 0 00.199 1.122 10.641 10.641 0 005.136 1.87v1.156a.801.801 0 101.603.07v-1.25c1.435-.168 2.797-.72 3.886-1.825 1.247-1.268 1.815-3.019 1.516-4.676-.27-1.526-1.217-2.736-2.659-3.405" fill="#5CB615" fill-rule="nonzero"/></svg>
